astaworks/images/checkmark-for-verification.svg

<?xml version="1.0" encoding="UTF-8"?>
<svg width="15px" height="13px" viewBox="0 0 15 13" version="1.1" xmlns="http://www.w3.org/2000/svg" xmlns:xlink="http://www.w3.org/1999/xlink">
    <!-- Generator: Sketch 47.1 (45422) - http://www.bohemiancoding.com/sketch -->
    <title>checkmark-for-verification</title>
    <desc>Created with Sketch.</desc>
    <defs></defs>
    <g id="Symbols" stroke="none" stroke-width="1" fill="none" fill-rule="evenodd">
        <g id="checkmark-for-verification" fill="#303A88">
            <g id="Fill-1">
                <path d="M14.8955026,1.7843336 L12.9027573,0.0748066415 C12.8411022,0.0221394914 12.76024,-0.0050375077 12.679954,0.000772747289 C12.5981314,0.00602071953 12.522263,0.0425690977 12.4690591,0.101983641 L5.2400512,8.13119375 L2.66955376,4.81110159 C2.6201913,4.74812593 2.54739607,4.70632958 2.46711004,4.69527135 C2.38605572,4.68365084 2.30423312,4.70483016 2.23892869,4.75318647 L0.122489077,6.31333365 C-0.013305714,6.4136074 -0.0403878435,6.60178469 0.0623705913,6.73354628 L4.82152666,12.8806086 C4.87703542,12.9523934 4.96327568,12.9962514 5.05547016,13 L5.0668024,13 C5.15534752,13 5.23928292,12.9627019 5.29786483,12.8974771 L14.923161,2.20754508 C15.0357151,2.08309316 15.0230383,1.89341645 14.8955026,1.7843336 Z"></path>
            </g>
        </g>
    </g>
</svg>

<svg width="15" height="13" viewBox="0 0 15 13" xmlns="http://www.w3.org/2000/svg"><title>checkmark-for-verification</title><path d="M14.896 1.784L12.903.074a.31.31 0 0 0-.434.028L5.24 8.132l-2.57-3.32a.311.311 0 0 0-.431-.059L.122 6.313a.295.295 0 0 0-.06.42l4.76 6.148a.312.312 0 0 0 .233.119h.012a.31.31 0 0 0 .23-.103l9.626-10.69a.294.294 0 0 0-.027-.423z" fill="#303A88" fill-rule="evenodd"/></svg>
